X: 3
T: Tell Her I Am
R: jig
M: 6/8
L: 1/8
K: Gmaj
edB ~G3|DED ~G3|DED c2 d|BGE E B/c/d||edB ~G3|DED ~G3|AGF GBA|1 GFE D B/c/d:|2 GFE D2 A||~B3 dBG|~B2e dBG|AcB AGA|BGE E2 c|~B3 deg||age d2 B|cBA GBA|1 GFE D2 A:|2 GFE D B/c/d|||efg efg|dBG G B/c/d|e2 a aga|bge e2 d|efg efg|dBG G e/f/g||agf gba|gfe d B/c/d|efg efg|dBG G B/c/d|e2 a aga||bge e2 B|def gba|gfe d2 B|cBA GBA|GFE D B/c/d||


Tune 161	Setting 23936

